svg/color/tia.svg

<svg width="64" height="65" viewBox="0 0 64 65" fill="none" xmlns="http://www.w3.org/2000/svg">
<rect y="0.303711" width="64" height="64" rx="32" fill="#7B2BF9"/>
<rect x="0.5" y="0.803711" width="63" height="63" rx="31.5" stroke="#070B14" stroke-opacity="0.15"/>
<path d="M54.7235 27.536C54.7193 27.5151 54.7151 27.4963 54.7109 27.4754C53.7945 23.1166 51.636 19.1127 48.4129 15.8896C44.029 11.5057 38.2007 9.09253 32.0007 9.09253C25.8007 9.09253 19.9723 11.5078 15.5885 15.8917C14.5218 16.9584 13.574 18.1107 12.7474 19.3319C12.501 19.6597 12.2819 20.0041 12.0856 20.3673C9.93756 23.937 8.7915 28.0328 8.7915 32.306C8.7915 38.506 11.2068 44.3344 15.5906 48.7183C19.9744 53.1021 25.8028 55.5174 32.0028 55.5174C38.2027 55.5174 44.0311 53.1021 48.415 48.7183C50.4837 46.6495 52.1141 44.2572 53.258 41.6582C53.3979 41.3701 53.519 41.0758 53.6254 40.7752C54.6671 38.1115 55.214 35.2515 55.214 32.306C55.214 30.684 55.047 29.0891 54.7256 27.5381L54.7235 27.536ZM46.6593 16.8624C46.7929 16.9897 46.9244 17.1191 47.056 17.2486C49.108 19.3006 50.6883 21.6971 51.7446 24.3086C51.851 24.5717 51.6277 24.8472 51.3479 24.7971C50.7363 24.6865 50.0495 24.6385 49.2875 24.651C48.7594 24.6593 48.3001 24.2898 48.2083 23.77C47.795 21.4487 47.1958 19.3048 46.4276 17.4344C46.3838 17.3279 46.3399 17.2214 46.294 17.117C46.1959 16.8895 46.4798 16.6912 46.6593 16.8624ZM48.8679 30.4794C48.8617 30.2352 49.1748 30.1308 49.3168 30.3291C49.49 30.5733 49.6591 30.8176 49.8178 31.0639C50.0307 31.3917 50.229 31.7173 50.4148 32.0409C50.5296 32.2434 50.5025 32.496 50.3459 32.6672C50.0975 32.9406 49.8282 33.2224 49.5339 33.5147C49.4274 33.6212 49.3189 33.7276 49.2061 33.8362C49.0683 33.9698 48.8366 33.8675 48.845 33.6754C48.8596 33.3268 48.8679 32.9761 48.8742 32.6233C48.8867 31.901 48.8846 31.185 48.8659 30.4752L48.8679 30.4794ZM19.6404 14.9627C23.2226 12.3971 27.5041 11.0131 32.0007 11.0131C33.1864 11.0131 34.3575 11.1112 35.5056 11.2991C35.8125 11.3492 35.9169 11.7416 35.6706 11.9337C34.5579 12.8063 33.5246 14.0964 32.6102 15.7685C32.3869 16.1756 31.913 16.376 31.4663 16.2507C28.4373 15.3969 25.4563 14.9961 22.7028 15.0942C21.6862 15.1297 20.7259 15.232 19.822 15.399C19.5673 15.4449 19.4317 15.113 19.6404 14.9627ZM16.601 46.7643C16.1542 45.921 16.7325 43.9649 19.6696 40.9902C19.9765 40.6791 19.9473 40.1698 19.6049 39.9005C19.488 39.8086 19.3711 39.7147 19.2542 39.6208C18.962 39.3849 18.5382 39.4057 18.2731 39.6729C18.2146 39.7314 18.1708 39.7752 18.1583 39.7878C16.6886 41.295 15.6616 42.6915 15.0854 43.9461C14.9226 44.301 14.4299 44.3407 14.2128 44.0129C11.9332 40.5664 10.7079 36.5291 10.7079 32.3018C10.7079 30.7905 10.8644 29.3041 11.1692 27.8595C11.2151 27.6403 11.5241 27.6278 11.5888 27.8408C12.0314 29.2999 12.7495 30.8072 13.7431 32.3331C15.0812 34.3873 16.8431 36.36 18.9348 38.172C19.6488 38.7899 20.4024 39.389 21.1873 39.9652C22.7801 41.1342 24.5106 42.2135 26.3518 43.1696C27.168 43.5934 27.9634 43.9983 28.7775 44.3657C29.2305 44.5703 29.7461 44.5849 30.2096 44.4033C30.5937 44.253 30.9799 44.0964 31.3682 43.9336C31.7919 43.7562 32.0195 43.2969 31.9088 42.8523C31.8942 42.7959 31.8838 42.7521 31.8775 42.7249C31.2366 40.0278 30.8797 36.9905 30.8379 33.809C30.8379 33.7715 30.8379 33.7339 30.8379 33.6963C30.8379 33.523 30.8379 33.3477 30.8338 33.1744C30.8338 33.1181 30.8338 33.0262 30.8338 32.9698C30.8338 32.9469 30.8338 32.926 30.8338 32.903C30.8338 32.7047 30.8358 32.5043 30.84 32.306C30.8505 31.7612 30.8692 31.2184 30.8985 30.6819C31.0968 26.8429 31.746 23.2356 32.7835 20.2024C32.8795 19.9227 32.7292 19.6179 32.4495 19.5219C32.176 19.428 31.9026 19.3382 31.6291 19.2526C31.3535 19.167 31.0571 19.3152 30.9653 19.5887C29.8422 22.8828 29.1512 26.7928 28.9654 30.9303C28.9424 31.4543 28.6565 31.9323 28.2035 32.2016C25.7527 33.6546 23.5023 35.1931 21.5588 36.7441C21.1539 37.0677 20.5756 37.0552 20.1832 36.7149C18.2355 35.0261 16.5947 33.1911 15.3547 31.2873C12.9186 27.5464 12.3403 24.0226 13.7243 21.3673C13.7285 21.361 13.7306 21.3548 13.7348 21.3485C13.9122 21.0562 14.0959 20.7661 14.2859 20.4822C15.8787 18.3758 18.8409 17.1546 22.7696 17.0168C23.018 17.0085 23.2685 17.0043 23.5211 17.0043C25.9322 17.0043 28.5187 17.403 31.149 18.1608C31.2074 18.1775 31.2638 18.1942 31.3222 18.2109C31.3661 18.2234 31.412 18.236 31.4558 18.2506C32.0633 18.4322 32.6729 18.6326 33.2845 18.8539C33.2991 18.8581 33.3137 18.8643 33.3263 18.8706C33.4849 18.929 33.6436 18.9875 33.8022 19.0459C33.8523 19.0647 33.9024 19.0835 33.9504 19.1023C33.9985 19.1211 34.0465 19.1378 34.0945 19.1566C35.3783 19.6534 36.6621 20.2317 37.9314 20.8913C40.3842 22.1668 42.6304 23.6594 44.5843 25.3002C40.8539 26.154 36.5181 27.8032 32.1593 30.0264C31.9589 30.1287 31.8253 30.3312 31.8128 30.5566C31.7982 30.8259 31.7773 31.3708 31.7627 31.8008C31.7544 32.0722 32.0403 32.2517 32.2804 32.1244H32.2825C36.5974 29.8573 40.9061 28.1622 44.6052 27.2688C45.2962 27.1018 45.745 26.4379 45.6469 25.7323C45.578 25.2397 45.5028 24.7554 45.4173 24.2794C45.3108 23.6824 44.983 23.148 44.5008 22.7785C42.7682 21.4591 40.8581 20.2484 38.8144 19.1858C37.4366 18.4698 36.0401 17.8435 34.6393 17.3091C34.3387 17.1943 34.2114 16.8415 34.3679 16.5618C35.8104 13.9816 37.5264 12.5349 39.1985 12.5349C39.2152 12.5349 39.234 12.5349 39.2507 12.5349C41.2234 12.5704 43.1899 14.6245 44.6449 18.1692C45.3818 19.9645 45.9537 22.0332 46.3441 24.2815C46.3441 24.2815 46.3399 24.2773 46.3379 24.2752C46.5049 25.2355 46.6385 26.2271 46.7387 27.2437C46.7303 27.25 46.722 27.2542 46.7115 27.2583C46.724 27.2709 46.7366 27.2813 46.747 27.2938C46.9119 29.0014 46.9829 30.78 46.9495 32.5941C46.9286 33.7422 46.8681 34.8737 46.7679 35.9822C44.1292 38.1136 40.8664 40.2366 37.2821 42.1362C36.1048 42.7604 34.9253 43.3428 33.7584 43.8773C33.7396 43.8856 33.7229 43.894 33.7041 43.9023C33.6143 43.9441 33.5246 43.9837 33.4369 44.0255C32.4704 44.4618 31.5122 44.8668 30.5707 45.2362C30.5185 45.2571 30.4643 45.278 30.4121 45.2968C30.3453 45.3218 30.2806 45.349 30.2138 45.374C30.0551 45.4346 29.8985 45.4951 29.742 45.5536C29.6981 45.5703 29.6543 45.587 29.6125 45.6016C29.4226 45.6725 29.2326 45.7414 29.0427 45.8082C29.0197 45.8166 28.9946 45.8249 28.9717 45.8333C26.953 46.5514 25.0304 47.0942 23.279 47.4323C19.0455 48.2465 17.0519 47.6223 16.5989 46.7664L16.601 46.7643ZM22.4356 38.4997C24.3123 36.9717 26.5105 35.4478 28.9216 34.0053C28.9738 37.0886 29.3119 40.0508 29.9111 42.7249C29.0176 42.3429 28.1241 41.9233 27.2411 41.4641C25.5293 40.5748 23.9178 39.5769 22.4377 38.4997H22.4356ZM34.7479 53.4173C33.844 53.5342 32.9275 53.5927 32.0007 53.5927C27.8632 53.5927 23.9052 52.4195 20.5067 50.2317C20.2729 50.0814 20.3731 49.7182 20.6508 49.7057C20.7092 49.7036 20.7614 49.6994 20.8094 49.6973C21.6737 49.641 22.6193 49.5157 23.6464 49.3174C25.8279 48.8978 28.2556 48.1776 30.7962 47.2069C31.0237 47.1192 31.2784 47.2319 31.3702 47.4574C31.3702 47.4574 31.3702 47.4595 31.3702 47.4616C32.3556 49.8581 33.5663 51.6701 34.9274 52.8224C35.1529 53.0123 35.0401 53.3798 34.7479 53.4173ZM43.7493 47.733C42.2296 50.7223 40.3571 52.4007 38.543 52.3673C36.5703 52.3318 34.6038 50.2777 33.1488 46.733V46.7288C33.0549 46.5034 33.1614 46.2466 33.3847 46.1485C33.3993 46.1422 33.416 46.136 33.4306 46.1276C33.5267 46.0859 33.6331 46.0796 33.7333 46.1068C36.4576 46.8708 39.1421 47.2695 41.6555 47.2695C41.929 47.2695 42.2004 47.2653 42.4697 47.2549C42.7849 47.2445 43.0938 47.2257 43.3986 47.2027C43.6804 47.1797 43.8767 47.4783 43.7493 47.7309V47.733ZM44.4048 45.1611C43.7702 45.2529 43.1022 45.3135 42.4029 45.3364C40.6973 45.397 38.8937 45.2488 37.04 44.9085C36.8145 44.8668 36.7707 44.562 36.9753 44.4576C37.3803 44.253 37.7831 44.0443 38.1881 43.8292C41.023 42.3262 43.6679 40.6833 45.983 39.0008C46.1562 38.8734 46.3963 39.0237 46.3608 39.2346C46.0393 41.1635 45.5947 42.9817 45.0373 44.6309C44.9413 44.9127 44.6991 45.1173 44.4048 45.1611ZM47.5465 46.8499C47.3858 47.0211 47.223 47.1902 47.056 47.3572C46.7658 47.6474 46.4694 47.9271 46.1646 48.1985C45.9725 48.3696 45.6845 48.1567 45.793 47.9229C45.8243 47.8561 45.8556 47.7893 45.8849 47.7225C46.0122 47.4407 46.1354 47.1526 46.2544 46.8583C46.2836 46.7894 46.342 46.7372 46.4151 46.7184C46.7178 46.6412 47.0121 46.5577 47.2981 46.4637C47.5298 46.3886 47.7114 46.6704 47.5465 46.8499ZM51.826 40.0946C51.7237 40.3556 51.6172 40.6144 51.5045 40.8691C51.4878 40.9046 51.4711 40.9401 51.4523 40.9756C50.7509 42.3262 49.5714 43.3909 47.9974 44.1319C47.6446 44.2989 47.2585 43.9754 47.3628 43.5996C47.8847 41.7292 48.2813 39.7001 48.5381 37.5729C48.5861 37.1762 48.7824 36.813 49.083 36.55C49.7301 35.9905 50.3355 35.4311 50.8908 34.8758L50.897 34.8695C51.1705 34.596 51.6381 34.7129 51.7487 35.0845C52.2978 36.9111 52.3291 38.6125 51.826 40.0946ZM52.2518 30.1203C52.0932 30.4063 51.6861 30.4189 51.5108 30.1433C51.4836 30.1016 51.4565 30.0577 51.4273 30.016C50.7926 29.0411 50.062 28.0829 49.2458 27.154C49.0454 26.9264 49.2103 26.5674 49.513 26.5674H49.5213C51.4293 26.5674 52.4293 27.0391 52.7341 27.6132C52.9887 28.0933 52.9115 28.9367 52.2539 30.1203H52.2518ZM53.2831 32.9344C53.2789 33.0784 53.0827 33.116 53.0263 32.9845C53.0013 32.9281 52.9762 32.8696 52.9512 32.8133C52.9052 32.7089 52.9178 32.5857 52.9866 32.4939C53.0013 32.4751 53.0305 32.4375 53.0639 32.3916C53.1578 32.2705 53.2914 32.2872 53.2914 32.4229C53.2914 32.6004 53.2873 32.7527 53.281 32.9344H53.2831Z" fill="white"/>
</svg>

<svg xmlns="http://www.w3.org/2000/svg" width="64" height="65" fill="none" viewBox="0 0 64 65"><rect width="64" height="64" y=".304" fill="#7B2BF9" rx="32"/><rect width="63" height="63" x=".5" y=".804" stroke="#070B14" stroke-opacity=".15" rx="31.5"/><path fill="#fff" d="m54.724 27.536-.013-.06c-.916-4.36-3.075-8.363-6.298-11.586A23.06 23.06 0 0 0 32 9.093c-6.2 0-12.029 2.415-16.412 6.799a23.5 23.5 0 0 0-2.842 3.44 8 8 0 0 0-.661 1.035A23.07 23.07 0 0 0 8.79 32.306a23.06 23.06 0 0 0 6.8 16.412 23.06 23.06 0 0 0 16.412 6.8 23.06 23.06 0 0 0 16.412-6.8 23.2 23.2 0 0 0 4.843-7.06 9 9 0 0 0 .367-.883 23.2 23.2 0 0 0 1.589-8.469 23.5 23.5 0 0 0-.488-4.768zm-8.065-10.674q.2.192.397.387a21.2 21.2 0 0 1 4.689 7.06.359.359 0 0 1-.397.488 10.7 10.7 0 0 0-2.06-.146 1.07 1.07 0 0 1-1.08-.881c-.413-2.321-1.012-4.465-1.78-6.336a14 14 0 0 0-.134-.317c-.098-.227.186-.426.365-.255m2.209 13.617a.248.248 0 0 1 .449-.15 20 20 0 0 1 1.098 1.712.54.54 0 0 1-.07.626 23 23 0 0 1-1.139 1.17.213.213 0 0 1-.361-.162q.021-.522.03-1.052.019-1.083-.01-2.148zM19.64 14.963c3.583-2.566 7.864-3.95 12.36-3.95 1.186 0 2.358.098 3.506.286.306.05.41.443.165.635-1.113.872-2.146 2.162-3.06 3.835a1 1 0 0 1-1.145.482c-3.029-.854-6.01-1.255-8.763-1.157a19.6 19.6 0 0 0-2.881.305c-.255.046-.39-.286-.182-.436m-3.039 31.801c-.447-.843.132-2.8 3.069-5.774a.732.732 0 0 0-.065-1.09l-.35-.28a.733.733 0 0 0-.982.053l-.115.115c-1.47 1.507-2.496 2.904-3.073 4.158a.501.501 0 0 1-.872.067 21.14 21.14 0 0 1-3.505-11.711c0-1.511.156-2.998.461-4.442.046-.22.355-.232.42-.02.442 1.46 1.16 2.967 2.154 4.493 1.338 2.054 3.1 4.027 5.192 5.839a36 36 0 0 0 2.252 1.793 39.5 39.5 0 0 0 5.165 3.205c.816.423 1.611.828 2.425 1.196.453.204.97.219 1.433.037q.576-.225 1.158-.47a.93.93 0 0 0 .54-1.08l-.03-.128c-.641-2.697-.998-5.735-1.04-8.916v-.113q.001-.26-.004-.522v-.271q0-.298.006-.597.016-.819.058-1.624c.199-3.84.848-7.446 1.885-10.48a.536.536 0 0 0-.334-.68 32 32 0 0 0-.82-.27.533.533 0 0 0-.664.337c-1.123 3.294-1.814 7.204-2 11.341a1.56 1.56 0 0 1-.762 1.272c-2.45 1.453-4.7 2.991-6.644 4.542a1.075 1.075 0 0 1-1.376-.03c-1.948-1.688-3.588-3.523-4.828-5.427-2.436-3.74-3.015-7.264-1.63-9.92l.01-.018q.265-.44.55-.867c1.594-2.106 4.556-3.327 8.485-3.465q.372-.012.751-.013c2.411 0 4.998.399 7.628 1.157l.173.05q.067.018.134.04a34 34 0 0 1 1.87.62l.476.175.148.056.144.055a38 38 0 0 1 3.837 1.734c2.453 1.276 4.7 2.768 6.653 4.41-3.73.853-8.066 2.502-12.425 4.725a.64.64 0 0 0-.346.53c-.015.27-.036.815-.05 1.245a.353.353 0 0 0 .517.323h.002c4.315-2.267 8.624-3.962 12.323-4.855a1.38 1.38 0 0 0 1.042-1.537 38 38 0 0 0-.23-1.453 2.43 2.43 0 0 0-.916-1.5 39.4 39.4 0 0 0-5.687-3.593 40 40 0 0 0-4.175-1.877.525.525 0 0 1-.271-.747c1.442-2.58 3.158-4.027 4.83-4.027h.053c1.972.035 3.939 2.09 5.394 5.634.737 1.796 1.309 3.864 1.7 6.113l-.007-.007q.25 1.442.4 2.969a.1.1 0 0 1-.026.014q.019.018.035.036c.165 1.707.236 3.486.203 5.3a47 47 0 0 1-.182 3.388c-2.639 2.132-5.902 4.255-9.486 6.154a68 68 0 0 1-3.524 1.741l-.054.025-.267.123a62 62 0 0 1-3.025 1.272l-.198.077-.472.18-.13.048q-.285.106-.57.206l-.07.025c-2.019.718-3.942 1.261-5.693 1.6-4.233.813-6.227.19-6.68-.667zm5.835-8.264c1.876-1.528 4.075-3.052 6.486-4.495.052 3.084.39 6.046.99 8.72a39 39 0 0 1-2.67-1.26 38 38 0 0 1-4.804-2.965zm12.312 14.917q-1.356.176-2.747.176a21.15 21.15 0 0 1-11.494-3.361c-.234-.15-.134-.514.144-.526l.158-.009q1.297-.083 2.837-.38c2.182-.42 4.61-1.14 7.15-2.11a.447.447 0 0 1 .574.25v.005c.986 2.396 2.196 4.208 3.557 5.36.226.19.113.558-.18.595m9.001-5.684c-1.52 2.99-3.392 4.668-5.206 4.634-1.973-.035-3.94-2.09-5.394-5.634v-.004a.447.447 0 0 1 .236-.58l.046-.021a.46.46 0 0 1 .302-.021c2.725.764 5.41 1.163 7.923 1.163q.41 0 .814-.015c.315-.01.624-.03.929-.052a.364.364 0 0 1 .35.528zm.656-2.572q-.953.14-2.002.175c-1.706.061-3.51-.087-5.363-.428a.24.24 0 0 1-.065-.45 67 67 0 0 0 1.213-.629c2.835-1.503 5.48-3.146 7.795-4.828a.24.24 0 0 1 .378.234c-.322 1.928-.766 3.747-1.324 5.396a.79.79 0 0 1-.632.53m3.142 1.689q-.241.257-.491.507-.435.434-.891.842c-.193.17-.48-.042-.372-.276l.092-.2q.19-.423.37-.865a.24.24 0 0 1 .16-.14q.454-.114.883-.254c.232-.075.413.206.248.386m4.279-6.755q-.153.392-.322.774-.024.053-.052.107c-.701 1.35-1.88 2.415-3.455 3.156a.455.455 0 0 1-.634-.532c.522-1.87.918-3.9 1.175-6.027a1.62 1.62 0 0 1 .545-1.023 34 34 0 0 0 1.808-1.674l.006-.006a.51.51 0 0 1 .852.215c.549 1.826.58 3.527.077 5.01m.426-9.975a.43.43 0 0 1-.741.023q-.04-.063-.084-.127a25 25 0 0 0-2.181-2.862.354.354 0 0 1 .267-.587h.008c1.908 0 2.908.472 3.213 1.046.255.48.177 1.324-.48 2.507zm1.031 2.814c-.004.144-.2.182-.257.05l-.075-.17a.32.32 0 0 1 .036-.32c.014-.019.044-.056.077-.102.094-.122.227-.105.227.03 0 .178-.004.33-.01.512z"/></svg>
